X:112
T:Rumford Assembly
M:2/4
L:1/8
B:Thompson's Compleat Collection of 200 Favourite Country Dances, vol. 1 (London, 1757)
Z:Transcribed and edited by Fynnian Titford-Mock, 2007
Z:abc's:AK/Fiddler's Companion
K:G
G B2 (d|d) g2 b|dcBA|B/G/F/G/ AD|G B2 (d|d) g2 b|(f/g/a) cB|B A3:|
|:A ^c2 (e|e) g2 b|agfe|f/d/^c/d/ eA|A ^c2 (e|e) g2 b|a/g/f "tr"e2|d4|
G B2 (d|d) g2 b|dcBA|B/G/F/G/ AD|G B2 (d|d) g2 b|dcBA|G2 G,2:|

